_inc/images/systems/logos/taitox.svg

<svg viewBox="0 0 3839 872.9" xmlns="http://www.w3.org/2000/svg">
    <path class="st1" d="M3839 0h-470.5l-36 30.5-1.2-30.5H2977l8 222.6c-4.7-8.5-10.6-17.1-18-25.5-14.6-16.5-32.9-29.5-54.4-38.6-24.4-10.3-53.1-15.5-85.2-15.5-56.8 0-113.4 15.9-165.2 46.3-41-41.3-99-46.3-124.6-46.3-7.7 0-15.4.3-22.8.8-12.2.8-24.6 2.4-37 4.8h-218.6l69.3-122.3h-531.7l-14.2 25.1c-4.8-3.4-9.8-6.6-15-9.6l-.5-.3c-31.9-18-71.6-27.1-118.2-27.1-31.2 0-62.1 4-91.9 11.9h-420.2l-17 .1H907.3l.1-.1H338.7L163 336.8h80.6L0 766.8h353.2l17-.1h411.3v.1h369.9l25.1-44.3c10.8 10.8 23.3 20.3 37.3 28.2l.5.3c32.4 18 70.9 26.8 117.6 26.8 41 0 81.5-6.9 120.3-20.6l2.1-.8c4.2-1.6 8.4-3.3 12.6-5l-8.8 15.5h167.1l-14.6 25.8 105.5 49.8c21.6 11 46 19.1 72.8 23.8 23.2 4.4 48.8 6.7 74.2 6.7 20.1 0 39.8-1.3 58.9-3.8h319.4l58.5-103.3c35.2-3.4 86.8-11.9 140.3-44 1.2-.7 2.4-1.5 3.7-2.2 6.5 6.6 13.6 12.6 21.3 18 30.6 21.6 69.3 32.5 114.8 32.5 18.3 0 36.3-1.3 53.6-3.9h300.6l68.3-57.9 2.1 57.9H3359l-12.6-349.1L3839 0Zm-806.4 737.3-3.2-89.6-105.8 89.6h-292.1c-16.6 2.6-33.7 3.9-51.5 3.9-39.5 0-72.5-9.2-98.2-27.2-13-9.1-23.8-20.2-32.2-33-7.8 5.7-15.9 11-24.3 16.1-50 30-98.9 37.4-131.2 40.3-3.9.3-7.8.6-11.7.7-17 30-57.9 102.2-57.9 102.2h-298.4l.5-.9c-20.4 3.1-41.6 4.7-63.5 4.7-23.7 0-47.5-2.1-69-6.2-24.1-4.3-46-11.5-65.2-21.3l-77.7-36.7 23.7-41.9h-167.1l37.9-67c-1.9 1.6-3.9 3.1-5.9 4.7-28.2 22.2-60.5 40.3-95.9 53.7l-1.5.6c-35.7 12.6-73 19-110.7 19-41.7 0-75.5-7.6-103.6-23.1l-.4-.2c-24.5-13.8-43.1-33.1-54.6-56.1l-38.8 68.5H830.9v-.1H353.2v.1H49.7l243.6-430h-80.6L355.6 55.3h496l-.1.1h285.2v-.1h424.1c28.6-7.9 58-11.9 88.1-11.9 41.5 0 76.5 7.9 104 23.3l.4.2c14.3 8.2 26.6 18.4 36.6 30.3l23.8-42h465.1l-69.3 122.3h241.7l-.1.1h28.9c12.4-2.5 24.7-4.2 36.8-5 6.8-.5 13.8-.7 20.8-.7 26 0 86.4 5.7 118.3 55.6 53-36.5 111.8-55.6 171.5-55.6 122.1 0 143.3 82.2 146.9 108 4.4 30.9-1.1 65.5-17.2 106.3l61-51.7-11-305.7h296.3l2.2 62.2 73.5-62.2H3760L3317 404l12 333.1h-296.4Z" style="fill:#fff"/>
    <path class="st1" d="m2194.3 249.8-162.2 285.9c-6.4 11.2-14.9 21-25.1 28.8-4.2-12.9-9.8-30.3-12.7-35.5l159.4-279.3H2021L1860.3 534l39 112.1h75.5c-9.7 14.9-19.5 25.7-30.7 32.9-12.5 8.1-28 12.2-47.5 12.2-12.6 0-25.4-1.1-36.3-2.8-12.6-1.8-26.6-4.9-39.2-8.9l-25.2-8.8-43.5 76.9 8.6 4.1c12.7 6.7 28.1 11.8 46.1 15 18.3 3.5 37.8 5 56 5 53.1 0 100.7-11 141.1-33.1 43.4-22.8 76.7-56.6 102.1-99.8l220.8-389h-132.8m403.5 21.8c-8.3-18.2-29.3-27.4-60.2-27.4-5.4 0-10.8.2-16 .5-16.6 1.1-33.1 4.4-49.1 9.3l-21.4 6.6 6.1-10.7h-113.7L2050 768h132.4s59.9-105.7 60.4-106.6c12.6 4.8 31.2 5.2 44.9 4 33.3-3 67-10.2 100.6-30.3 33.4-20 61.6-46.9 83.8-80.2 12.7-18.5 23.8-36 33.6-52.1l32.1-54.8c11.2-19.5 21-38.7 30.8-57.1 9.8-19 16.6-33.8 21-45 13.8-31.6 15.2-56.5 8.2-74.3Zm-169.1 124.6-28 52.8-37.8 63.8-25.3 41.2c-1.5 2.4-4.8 7.6-8.1 12.8-5.9 9.2-16.1 14.8-27.1 14.8h-14.6l137.9-243.4h13.7c7.7 0 12.9 7.9 9.8 15-6 13.6-14.8 33-20.5 43ZM929.1 127.6 702.8 665.5H563.1l47.5-97h-50.4l-62.9 97H356.2l374.5-537.9h198.4M660.8 473.2c28-60.9 62.9-136.4 107.7-226.2-72.7 103.2-124.3 178.6-155.2 226.2h47.5Zm501.8-345.6L857.9 665.5H719.5l304.7-537.9zm-449.3-.1-75.2 108h-83.4L311.1 665.6H173.7l243.6-430.1h-80.7l61.1-108z" style="fill:#fff"/>
    <path class="st1" style="fill:#fff" d="m2154.8 127.5-61.2 108h-80.9l-243.6 430.1h-137.4l243.6-430.1h-80.6l61.1-108zm-408 44.4c-2.7-18.6-12.6-32.7-29.3-42.3-16.8-9.5-40.5-14-68.5-14-29.3 0-58.7 4.9-86.7 14.9-27.8 10.1-54.5 24.3-78.2 43-23.7 18.6-43.3 39.2-57.3 61.7-15.4 22.5-39.2 60.8-69.9 114.7l-51.7 92.3c-30.7 55.3-51.6 94.1-61.4 116.2-11.2 22.1-14.1 42.8-11.2 61.6 2.7 18.9 13.9 32.9 30.7 42.4 16.8 9.3 39.2 14 68.5 14 29.3 0 58.7-5 86.7-14.9 26.5-10 53.1-24.2 76.8-43 23.7-18.5 43.3-39.1 58.7-61.4 15.4-22.7 37.8-60.9 68.4-115l51.9-92.3c32.1-55.2 53-94 62.8-116.4 9.7-22 14-42.5 9.7-61.5ZM1609 224.5l-196.7 345.8c-7.8 13.6-24.9 18.3-38.3 10.4-4.3-2.6-5.8-8.2-3.3-12.6l196.7-345.8c7.8-13.6 24.9-18.3 38.3-10.4 4.4 2.5 5.8 8.1 3.3 12.6Zm-131-97-61.2 108h-80.9l-243.6 430.1H954.9l243.6-430.1h-80.7l61.1-108zm1927.6-26.3-320.8 271.6-345 292.3h157.3l189.5-160.5L3237 377.3l325.9-276.1z"/>
    <path class="st1" style="fill:#fff" d="m3254 665.1-20.3-563.9H3082l20.3 563.9zm-351.2-375c-4.1-30.3-29.2-45.9-75.4-45.9-51.7 0-102.1 18.9-148.2 56-46.1 35.5-88 88-127.2 156.1-39 68.5-55.8 121.1-51.6 156.5 4.1 37.3 30.7 56 79.6 56 41.9 0 79.7-9.2 111.8-27.4 32.2-19 60.1-48.1 82.5-86.3 0 0 5.7-9.7 7.6-12.9.8-1.3 3.1-5.2 3.1-5.2h-102.6l-2.6 4.6-10.7 18.5c-4.8 8.8-9.3 12.4-10.6 13.8-1.7 1.9-3.9 3.2-6.3 3.9l-1.8.5c-5.4 1.5-11.1-.5-14.4-5.1-2.8-3.9-3.4-8.9-1.7-13.4 5-12.5 16.7-36.8 43.5-83.4h150.9l32.2-57.8c32.2-56.2 46.1-99.4 41.9-128.5Zm-119.3 59.2c-3.6 8.3-9.9 21.6-21.8 43h-36.3c13.9-22.9 21.4-34.5 26.1-41.1 17.2-25.5 38.9-19.1 32-1.9Z"/>
</svg>

<?xml version="1.0" encoding="utf-8"?>
<svg version="1.1" viewBox="0 0 3839 872.9" xmlns="http://www.w3.org/2000/svg">
  <path class="st1" d="M 3839 0 L 3368.5 0 L 3332.5 30.5 L 3331.3 0 L 2977 0 L 2985 222.6 C 2980.3 214.1 2974.4 205.5 2967 197.1 C 2952.4 180.6 2934.1 167.6 2912.6 158.5 C 2888.2 148.2 2859.5 143 2827.4 143 C 2770.6 143 2714 158.9 2662.2 189.3 C 2621.2 148 2563.2 143 2537.6 143 C 2529.9 143 2522.2 143.3 2514.8 143.8 C 2502.6 144.6 2490.2 146.2 2477.8 148.6 L 2259.2 148.6 L 2328.5 26.3 L 1796.8 26.3 L 1782.6 51.4 C 1777.8 48 1772.8 44.8 1767.6 41.8 L 1767.1 41.5 C 1735.2 23.5 1695.5 14.4 1648.9 14.4 C 1617.7 14.4 1586.8 18.4 1557 26.3 L 1136.8 26.3 L 1119.8 26.4 L 907.3 26.4 L 907.4 26.3 L 338.7 26.3 L 163 336.8 L 243.6 336.8 L 0 766.8 L 353.2 766.8 L 370.2 766.7 L 781.5 766.7 L 781.5 766.8 L 1151.4 766.8 L 1176.5 722.5 C 1187.3 733.3 1199.8 742.8 1213.8 750.7 L 1214.3 751 C 1246.7 769 1285.2 777.8 1331.9 777.8 C 1372.9 777.8 1413.4 770.9 1452.2 757.2 L 1454.3 756.4 C 1458.5 754.8 1462.7 753.1 1466.9 751.4 L 1458.1 766.9 L 1625.2 766.9 L 1610.6 792.7 L 1716.1 842.5 C 1737.7 853.5 1762.1 861.6 1788.9 866.3 C 1812.1 870.7 1837.7 873 1863.1 873 C 1883.2 873 1902.9 871.7 1922 869.2 L 2241.4 869.2 L 2299.9 765.9 C 2335.1 762.5 2386.7 754 2440.2 721.9 C 2441.4 721.2 2442.6 720.4 2443.9 719.7 C 2450.4 726.3 2457.5 732.3 2465.2 737.7 C 2495.8 759.3 2534.5 770.2 2580 770.2 C 2598.3 770.2 2616.3 768.9 2633.6 766.3 L 2934.2 766.3 L 3002.5 708.4 L 3004.6 766.3 L 3359 766.3 L 3346.4 417.2 L 3839 0 Z M 3032.6 737.3 L 3029.4 647.7 L 2923.6 737.3 L 2631.5 737.3 C 2614.9 739.9 2597.8 741.2 2580 741.2 C 2540.5 741.2 2507.5 732 2481.8 714 C 2468.8 704.9 2458 693.8 2449.6 681 C 2441.8 686.7 2433.7 692 2425.3 697.1 C 2375.3 727.1 2326.4 734.5 2294.1 737.4 C 2290.2 737.7 2286.3 738 2282.4 738.1 C 2265.4 768.1 2224.5 840.3 2224.5 840.3 L 1926.1 840.3 L 1926.6 839.4 C 1906.2 842.5 1885 844.1 1863.1 844.1 C 1839.4 844.1 1815.6 842 1794.1 837.9 C 1770 833.6 1748.1 826.4 1728.9 816.6 L 1651.2 779.9 L 1674.9 738 L 1507.8 738 L 1545.7 671 C 1543.8 672.6 1541.8 674.1 1539.8 675.7 C 1511.6 697.9 1479.3 716 1443.9 729.4 L 1442.4 730 C 1406.7 742.6 1369.4 749 1331.7 749 C 1290 749 1256.2 741.4 1228.1 725.9 L 1227.7 725.7 C 1203.2 711.9 1184.6 692.6 1173.1 669.6 L 1134.3 738.1 L 830.9 738.1 L 830.9 738 L 750.7 738 L 595.6 738 L 353.2 738 L 353.2 738.1 L 49.7 738.1 L 293.3 308.1 L 212.7 308.1 L 355.6 55.3 L 851.6 55.3 L 851.5 55.4 L 982.1 55.4 L 1037.8 55.4 L 1136.7 55.4 L 1136.7 55.3 L 1560.8 55.3 C 1589.4 47.4 1618.8 43.4 1648.9 43.4 C 1690.4 43.4 1725.4 51.3 1752.9 66.7 L 1753.3 66.9 C 1767.6 75.1 1779.9 85.3 1789.9 97.2 L 1813.7 55.2 L 2278.8 55.2 L 2209.5 177.5 L 2451.2 177.5 L 2451.1 177.6 L 2480 177.6 C 2492.4 175.1 2504.7 173.4 2516.8 172.6 C 2523.6 172.1 2530.6 171.9 2537.6 171.9 C 2563.6 171.9 2624 177.6 2655.9 227.5 C 2708.9 191 2767.7 171.9 2827.4 171.9 C 2949.5 171.9 2970.7 254.1 2974.3 279.9 C 2978.7 310.8 2973.2 345.4 2957.1 386.2 L 3018.1 334.5 L 3007.1 28.8 L 3303.4 28.8 L 3305.6 91 L 3379.1 28.8 L 3760 28.8 L 3317 404 L 3329 737.1 L 3032.6 737.1 Z" style="fill: rgb(255, 255, 255);"/>
  <path class="st1" d="M 2194.3 249.8 L 2032.1 535.7 C 2025.7 546.9 2017.2 556.7 2007 564.5 L 2007 564.5 C 2002.8 551.6 1997.2 534.2 1994.3 529 L 2153.7 249.7 L 2021 249.7 L 1860.3 534 L 1899.3 646.1 L 1974.8 646.1 C 1965.1 661 1955.3 671.8 1944.1 679 C 1931.6 687.1 1916.1 691.2 1896.6 691.2 C 1884 691.2 1871.2 690.1 1860.3 688.4 C 1847.7 686.6 1833.7 683.5 1821.1 679.5 L 1795.9 670.7 L 1752.4 747.6 L 1761 751.7 C 1773.7 758.4 1789.1 763.5 1807.1 766.7 C 1825.4 770.2 1844.9 771.7 1863.1 771.7 C 1916.2 771.7 1963.8 760.7 2004.2 738.6 C 2047.6 715.8 2080.9 682 2106.3 638.8 L 2327.1 249.8 L 2194.3 249.8" style="fill: rgb(255, 255, 255);"/>
  <path class="st1" d="M 2597.8 271.6 C 2589.5 253.4 2568.5 244.2 2537.6 244.2 C 2532.2 244.2 2526.8 244.4 2521.6 244.7 C 2505 245.8 2488.5 249.1 2472.5 254 L 2451.1 260.6 L 2457.2 249.9 L 2343.5 249.9 L 2050 768 L 2182.4 768 C 2182.4 768 2242.3 662.3 2242.8 661.4 C 2255.4 666.2 2274 666.6 2287.7 665.4 C 2321 662.4 2354.7 655.2 2388.3 635.1 C 2421.7 615.1 2449.9 588.2 2472.1 554.9 C 2484.8 536.4 2495.9 518.9 2505.7 502.8 L 2537.8 448 C 2549 428.5 2558.8 409.3 2568.6 390.9 C 2578.4 371.9 2585.2 357.1 2589.6 345.9 C 2603.4 314.3 2604.8 289.4 2597.8 271.6 Z M 2428.7 396.2 L 2400.7 449 L 2362.9 512.8 L 2337.6 554 C 2336.1 556.4 2332.8 561.6 2329.5 566.8 C 2323.6 576 2313.4 581.6 2302.4 581.6 L 2287.8 581.6 L 2425.7 338.2 L 2439.4 338.2 C 2447.1 338.2 2452.3 346.1 2449.2 353.2 C 2443.2 366.8 2434.4 386.2 2428.7 396.2 Z" style="fill: rgb(255, 255, 255);"/>
  <path class="st1" d="M 929.1 127.6 L 702.8 665.5 L 563.1 665.5 L 610.6 568.5 L 560.2 568.5 L 497.3 665.5 L 356.2 665.5 L 730.7 127.6 L 929.1 127.6 M 660.8 473.2 C 688.8 412.3 723.7 336.8 768.5 247 C 695.8 350.2 644.2 425.6 613.3 473.2 L 660.8 473.2 Z" style="fill: rgb(255, 255, 255);"/>
  <polygon class="st1" points="1162.6 127.6 857.9 665.5 719.5 665.5 1024.2 127.6" style="fill: rgb(255, 255, 255);"/>
  <polygon class="st1" points="713.3 127.5 638.1 235.5 554.7 235.5 311.1 665.6 173.7 665.6 417.3 235.5 336.6 235.5 397.7 127.5" style="fill: rgb(255, 255, 255);"/>
  <polygon class="st1" points="2154.8 127.5 2093.6 235.5 2012.7 235.5 1769.1 665.6 1631.7 665.6 1875.3 235.5 1794.7 235.5 1855.8 127.5" style="fill: rgb(255, 255, 255);"/>
  <path class="st1" d="M 1746.8 171.9 C 1744.1 153.3 1734.2 139.2 1717.5 129.6 C 1700.7 120.1 1677 115.6 1649 115.6 C 1619.7 115.6 1590.3 120.5 1562.3 130.5 C 1534.5 140.6 1507.8 154.8 1484.1 173.5 C 1460.4 192.1 1440.8 212.7 1426.8 235.2 C 1411.4 257.7 1387.6 296 1356.9 349.9 L 1305.2 442.2 C 1274.5 497.5 1253.6 536.3 1243.8 558.4 C 1232.6 580.5 1229.7 601.2 1232.6 620 C 1235.3 638.9 1246.5 652.9 1263.3 662.4 C 1280.1 671.7 1302.5 676.4 1331.8 676.4 C 1361.1 676.4 1390.5 671.4 1418.5 661.5 C 1445 651.5 1471.6 637.3 1495.3 618.5 C 1519 600 1538.6 579.4 1554 557.1 C 1569.4 534.4 1591.8 496.2 1622.4 442.1 L 1674.3 349.8 C 1706.4 294.6 1727.3 255.8 1737.1 233.4 C 1746.8 211.4 1751.1 190.9 1746.8 171.9 Z M 1609 224.5 L 1412.3 570.3 C 1404.5 583.9 1387.4 588.6 1374 580.7 C 1369.7 578.1 1368.2 572.5 1370.7 568.1 L 1567.4 222.3 C 1575.2 208.7 1592.3 204 1605.7 211.9 C 1610.1 214.4 1611.5 220 1609 224.5 Z" style="fill: rgb(255, 255, 255);"/>
  <polygon class="st1" points="1478 127.5 1416.8 235.5 1335.9 235.5 1092.3 665.6 954.9 665.6 1198.5 235.5 1117.8 235.5 1178.9 127.5" style="fill: rgb(255, 255, 255);"/>
  <polygon class="st1" points="3405.6 101.2 3084.8 372.8 2739.8 665.1 2897.1 665.1 3086.6 504.6 3237 377.3 3562.9 101.2" style="fill: rgb(255, 255, 255);"/>
  <polygon class="st1" points="3254 665.1 3233.7 101.2 3082 101.2 3102.3 665.1" style="fill: rgb(255, 255, 255);"/>
  <path class="st1" d="M 2902.8 290.1 C 2898.7 259.8 2873.6 244.2 2827.4 244.2 C 2775.7 244.2 2725.3 263.1 2679.2 300.2 C 2633.1 335.7 2591.2 388.2 2552 456.3 C 2513 524.8 2496.2 577.4 2500.4 612.8 C 2504.5 650.1 2531.1 668.8 2580 668.8 C 2621.9 668.8 2659.7 659.6 2691.8 641.4 C 2724 622.4 2751.9 593.3 2774.3 555.1 C 2774.3 555.1 2780 545.4 2781.9 542.2 C 2782.7 540.9 2785 537 2785 537 L 2682.4 537 L 2679.8 541.6 L 2669.1 560.1 C 2664.3 568.9 2659.8 572.5 2658.5 573.9 C 2656.8 575.8 2654.6 577.1 2652.2 577.8 L 2650.4 578.3 C 2645 579.8 2639.3 577.8 2636 573.2 C 2633.2 569.3 2632.6 564.3 2634.3 559.8 C 2639.3 547.3 2651 523 2677.8 476.4 L 2828.7 476.4 L 2860.9 418.6 C 2893.1 362.4 2907 319.2 2902.8 290.1 Z M 2783.5 349.3 C 2779.9 357.6 2773.6 370.9 2761.7 392.3 L 2725.4 392.3 C 2739.3 369.4 2746.8 357.8 2751.5 351.2 L 2751.5 351.2 C 2768.7 325.7 2790.4 332.1 2783.5 349.3 Z" style="fill: rgb(255, 255, 255);"/>
</svg>
